src/svgs/bottom_shape.svg

<svg width="231" height="260" viewBox="0 0 231 260" fill="none" xmlns="http://www.w3.org/2000/svg">
<path d="M176.951 23.5806C202.559 23.007 235.352 44.7802 254.697 74.3525C274.039 104.001 279.89 141.387 282.413 175.179C284.939 208.89 284.104 238.949 272.584 259.122C261.025 279.311 238.746 289.63 215.794 285.863C192.913 282.12 169.372 264.226 145.026 247.215C120.719 230.262 66.0097 230.234 46.7991 204.262C27.5838 178.37 18.5706 145.472 25.9065 124.16C33.2425 102.849 81.3539 102.279 104.571 87.3865C127.789 72.4942 151.346 24.2399 176.951 23.5806Z" fill="#2B4570"/>
</svg>

<svg width="231" height="260" fill="none" xmlns="http://www.w3.org/2000/svg"><path d="M176.951 23.58c25.608-.573 58.401 21.2 77.746 50.773 19.342 29.648 25.193 67.034 27.716 100.826 2.526 33.711 1.691 63.77-9.829 83.943-11.559 20.189-33.838 30.508-56.79 26.741-22.881-3.743-46.422-21.637-70.768-38.648-24.307-16.953-79.016-16.981-98.227-42.953-19.215-25.892-28.228-58.79-20.892-80.102 7.335-21.311 55.447-21.881 78.664-36.773 23.218-14.893 46.775-63.147 72.38-63.806Z" fill="#2B4570"/></svg>
